!!!COM: Haydn, Franz Joseph
!!!OTL: String Quartet in E-flat major
!!!OPS: Op. 9
!!!ONM: No. 2
!!!OMD: Moderato
!!!OMV: 1
!!!SCT: 
!!!SCA: Thematisch-bibliographisches Werkevererzeichnis (A. van Hoboken)
!!!YOR: Trautwein Edition
!!!ENC: Frances Bennion
!!!CDT: 1732/3/31/-1809/5/31/
!!!CNT: Oesterreich
!!!YEC: Copyright (c) 1994, 2000 Center for Computer Assisted Research in the Humanities
!!!YEM: Rights to all derivative editions reserved.
!!!YEM: Refer to licensing agreement for further details.
!!!YEN: United States of America
**kern	**kern	**kern	**kern
*k[b-e-a-]	*k[b-e-a-]	*k[b-e-a-]	*k[b-e-a-]
*E-:	*E-:	*E-:	*E-:
*clefF4	*clefC3	*clefG	*clefG
*M4/4	*M4/4	*M4/4	*M4/4
2..r	2..r	2..r	2..r
8r	8r	8r	8e-
=1	=1	=1	=1
4E-	4B-	4G 4e-	8g
.	.	.	8b-
4r	4r	4r	8ee-
.	.	.	8gg
4E-	4B-	4e- 4G	8bb-
.	.	.	8gg
4r	4r	4r	8ee-
.	.	.	8b-
=2	=2	=2	=2
4D	4B-	4f 4B-	8a-
.	.	.	8f
4r	4r	4r	8d
.	.	.	8B-
4E-	4B-	4G 4e-	8G
.	.	.	8B-
4r	4r	4r	8e-
.	.	.	8g
=3	=3	=3	=3
1r	8A-	4.r	8c
.	8r	.	8a-
.	8B-	.	8d
.	8r	8d	8b-
.	4.E-	4f	4a-
.	.	8e-	8g
.	8r	8r	8e-
=4	=4	=4	=4
4E-	4B-	4G 4e-	8g
.	.	.	8b-
4r	4r	4r	8ee-
.	.	.	8gg
4E-	4B-	4e- 4G	8bb-
.	.	.	8gg
4r	4r	4r	8ee-
.	.	.	8b-
=5	=5	=5	=5
8AA-	8F	8c	8cc
8r	8r	8r	8f
8BB-	8F	8d	8a-
8r	8r	8r	8d
4E-	8G	8e-	8e-
.	4r	4r	4.r
4r	.	.	.
.	8G	8B-	.
=6	=6	=6	=6
8EE-	2G	2B-	1r
8E-	.	.	.
8E-	.	.	.
8E-	.	.	.
8EE-	2B-	2d-	.
8E-	.	.	.
8E-	.	.	.
8E-	.	.	.
=7	=7	=7	=7
8EE-	2A-	2c	1r
8E-	.	.	.
8E-	.	.	.
8E-	.	.	.
8EE-	2F	2d 2A-	.
8E-	.	.	.
8E-	.	.	.
8E-	.	.	.
=8	=8	=8	=8
[1E-	2G	2G 2e-	8r
.	.	.	8ee-
.	.	.	8ee-
.	.	.	16dd
.	.	.	16cc
.	2B-	2d-	8b-
.	.	.	8g
.	.	.	8f
.	.	.	8e-
=9	=9	=9	=9
1E-]	2A-	2c	8e-
.	.	.	8ee-
.	.	.	8ee-
.	.	.	16dd
.	.	.	16cc
.	2F	2d 2A-	4b-
.	.	.	8a-
.	.	.	16g
.	.	.	16f
=10	=10	=10	=10
4E-	4G	4G 4e-	8e-
.	.	.	16.b-
.	.	.	32cc
4.r	4.r	4.r	16.b-
.	.	.	32cc
.	.	.	16.b-
.	.	.	32cc
.	.	.	8b-
8E-	4B-	8b-	8gg
8F	.	8a-	8ff
8G	8B-	8g	8ee-
=11	=11	=11	=11
4A-	4B-	4f	8dd
.	.	.	16.b-
.	.	.	32cc
4.r	4.r	4.r	16.b-
.	.	.	32cc
.	.	.	16.b-
.	.	.	32cc
.	.	.	8b-
8D	4B-	8ff	8aa-
8E-	.	8ee-	8gg
8F	8B-	8dd	8ff
=12	=12	=12	=12
4G	4B-	4ee-	8ee-
.	.	.	16.b-
.	.	.	32cc
4.r	4.r	4.r	16.b-
.	.	.	32cc
.	.	.	16.b-
.	.	.	32cc
.	.	.	8b-
8E-	4B-	8gg	8bb-
8F	.	8ff	8aa-
8G	8B-	8ee-	8gg
=13	=13	=13	=13
4A-	2c	2ee-	[2ff
4A	.	.	.
4.B-	2B-	16dd	16ff]
.	.	16ee-	16gg
.	.	16ff	16aa-
.	.	16ee-	16gg
.	.	8ff	8aa-
8BB-	.	16ee-	16gg
.	.	16dd	16ff
=14	=14	=14	=14
8E-	8G	8ee-	8ee-
8E-	8e-	8ee-	8ee-
8BB-	8B-	8b-	8b-
8GG	8G	8g	8g
4EE-	4E-	4e-	4e-
4r	4r	4r	4r
=15	=15	=15	=15
3..r	8r	4r	4gg
.	8G	.	.
.	8d	[6..g	4b
.	8f	.	.
.	4e-	.	4cc
.	.	48g]	.
.	.	16ee-	.
24r	.	.	.
8C	.	16gg	.
.	.	16ff	.
8c	4r	16ee-	4r
.	.	16dd	.
8E-	.	16cc	.
.	.	16b-	.
=16	=16	=16	=16
4F	8r	4a	4ff
.	8F	.	.
4.r	8c	[6..f	4a
.	8e-	.	.
.	4d	.	8b-
.	.	48f]	.
.	.	16dd	.
8BB-	.	16ff	8.bb-
.	.	16ee-	.
[4B-	8f	4dd	.
.	.	.	16aa
.	8B-	.	16gg
.	.	.	16ff
=17	=17	=17	=17
8B-]	[2c	4g	4.ee-
8c	.	.	.
4A	.	4.f	.
.	.	.	8ff
4B-	4c]	.	4ee-
.	.	8B-	.
4BB-	8B-	8b-	8dd
.	8d	8a-	8ff
=18	=18	=18	=18
4E-	4e-	2g	4ff
8r	4c	.	16ee-
.	.	.	16dd
8E	.	.	16cc
.	.	.	16b-
8F	4c	4c	4b-
8FF	.	.	.
8F	8r	4r	8a
8E-	8f	.	8r
=19	=19	=19	=19
4D	8b-	4r	8r
.	8B-	.	16b-
.	.	.	32a
.	.	.	32b-
8r	8r	4.b-	8dd
8BB-	8f	.	8d
8C	4.e-	.	8e-
8CC	.	8a	16cc
.	.	.	32b
.	.	.	32cc
8r	.	[4cc	8ee-
8C	8g	.	8e-
=20	=20	=20	=20
8D	4.f	8cc]	8f
8DD	.	8b-	16dd
.	.	.	32cc
.	.	.	32dd
8r	.	4.dd	8ff
8D	8a-	.	8f
8E-	4.g	.	8g
8EE-	.	8cc	16ee-
.	.	.	32dd
.	.	.	32ee-
8r	.	8ee-	8gg
8E	8c	8g	8b-
=21	=21	=21	=21
4F	4c	8f	8a
.	.	8cc	16aa
.	.	.	32gg
.	.	.	32aa
8r	8r	8ee-	8ccc
8F	8c	8a	8ee-
8B-	4B-	4b-	8dd
8BB-	.	.	8ff
[4B-	4r	8r	8bb-
.	.	16b-	16d
.	.	32a	32c
.	.	32b-	32d
=22	=22	=22	=22
8B-]	8r	8cc	8e-
8A	16cc	8c	8ee-
.	16b-	.	.
4.c	4a	8e-	8r
.	.	16cc	16e-
.	.	32b-	32d
.	.	32cc	32e-
.	8r	8dd	8f
8B-	16dd	8d	8ff
.	16cc	.	.
[4d	4b-	8f	8r
.	.	16dd	16f
.	.	32cc	32e-
.	.	32dd	32f
=23	=23	=23	=23
8d]	8r	8ee-	8g
8c	16ee-	8e-	8gg
.	16dd	.	.
4.e-	8cc	4g	8r
.	8b-	.	8gg
.	8cc	4f	8a
4d	8b-	.	8b-
.	4g	4g	[4ee-
8c	.	.	.
=24	=24	=24	=24
8A	8c	4f	16.ee-]
.	.	.	32ff
8B-	4B-	.	8..dd
8G	.	4e-	.
.	.	.	32ee-
8A	4A	.	8..cc
8F	.	4d	.
.	.	.	32dd
8G	4G	.	8..b-
8E-	.	4c	.
.	.	.	32cc
8E	8G	.	16.b-
.	.	.	32cc
=25	=25	=25	=25
8F	2A	2c	16a
.	.	.	16ccc
8F	.	.	16aa
.	.	.	16ff
8F	.	.	16ee-
.	.	.	16cc
8F	.	.	16a
.	.	.	16e-
8F	[2B-	2d	16d
.	.	.	16bb-
8F	.	.	16ff
.	.	.	16dd
8F	.	.	16b-
.	.	.	16f
8F	.	.	16d
.	.	.	16B-
=26	=26	=26	=26
8F	2B-]	2e 2G	16G
.	.	.	16bb-
8F	.	.	16gg
.	.	.	16ee
8F	.	.	16cc
.	.	.	16b-
8F	.	.	16g
.	.	.	16e
8F	2A	2c 2e-	16A
.	.	.	16ccc
8F	.	.	16aa
.	.	.	16ff
8F	.	.	16ee-
.	.	.	16cc
8F	.	.	16a
.	.	.	16e-
=27	=27	=27	=27
4BB-	4B-	4d	16d
.	.	.	16dd
.	.	.	16dd
.	.	.	32cc
.	.	.	32dd
4r	4r	4r	16ff
.	.	.	16ff
.	.	.	16ff
.	.	.	32ee
.	.	.	32ff
4BB-	4d	4f	16bb-
.	.	.	16bb-
.	.	.	16bb-
.	.	.	32aa
.	.	.	32bb-
4r	4r	4r	16ddd
.	.	.	16ddd
.	.	.	16ddd
.	.	.	32ccc
.	.	.	32ddd
=28	=28	=28	=28
8r	8r	8r	2fff
8D	8b-	8b-	.
8D	8b-	8b-	.
8D	8b-	8b-	.
8r	8r	8r	2fff#
8D	8a-	8b-	.
8D	8a-	8b-	.
8D	8a-	8b-	.
=29	=29	=29	=29
8r	8r	8r	2ggg
8E-	8g	8b-	.
8E-	8g	8b-	.
8E-	8g	8b-	.
8r	8r	8r	4.bbb-
8E	8g	8dd-	.
8E	8g	8dd-	.
8E	8e	8e	8e
=30	=30	=30	=30
8F	8f	8f	4ff
8F	8B-	8d	.
8F	8B-	8d	16ee-
.	.	.	16dd
8F	8B-	8d	16cc
.	.	.	16b-
8F	8B-	8d	2b-
8F	8B-	8d	.
8F	8B-	8d	.
8F	8B-	8d	.
=31	=31	=31	=31
8F	8B-	8d-	4ff
8F	8B-	8d-	.
8F	8B-	8d-	16ee-
.	.	.	16dd-
8F	8B-	8d-	16cc
.	.	.	16b-
8F	8B-	8d-	2b-
8F	8B-	8d-	.
8F	8B-	8d-	.
8F	8B-	8d-	.
=32	=32	=32	=32
8F	8A-	8d-	[3..cc-
8F	8A-	8d-	.
8F	8A-	8d-	.
8F	8A-	8d-	.
8F	8A-	8d-	.
.	.	.	24cc-]
8F	8A-	8d-	8ee-
8F	8A-	8d-	8dd-
8F	8A-	8d-	8cc-
=33	=33	=33	=33
2.G-	2.B-	4d-	8b-
.	.	.	4b-
.	.	4d	.
.	.	.	4b-
.	.	4e-	.
.	.	.	4b-
4G	4c	4e	.
.	.	.	8b-
=34	=34	=34	=34
8F	8c	8f	24a
.	.	.	24cc
.	.	.	24ee-
8F	8A	8c	24cc
.	.	.	24a
.	.	.	24f
8F	8A	8c	24e-
.	.	.	24f
.	.	.	24a
8F	8A	8c	24cc
.	.	.	24a
.	.	.	24f
8F	8A	8c	24a
.	.	.	24cc
.	.	.	24ee-
8F	8A	8c	24cc
.	.	.	24a
.	.	.	24f
8F	8A	8c	24e-
.	.	.	24f
.	.	.	24a
8F	8A	8c	24cc
.	.	.	24a
.	.	.	24f
=35	=35	=35	=35
8E-	8A	8c	24a
.	.	.	24cc
.	.	.	24ee-
8E-	8A	8c	24cc
.	.	.	24a
.	.	.	24f
8E-	8A	8c	24e-
.	.	.	24f
.	.	.	24a
8E-	8A	8c	24cc
.	.	.	24a
.	.	.	24f
8E-	8A	8c	24a
.	.	.	24cc
.	.	.	24ee-
8E-	8A	8c	24cc
.	.	.	24a
.	.	.	24f
8E-	8A	8c	24e-
.	.	.	24f
.	.	.	24a
8E-	8A	8c	24cc
.	.	.	24a
.	.	.	24e-
=36	=36	=36	=36
4D	4B-	4d	16d
.	.	.	16b-
.	.	.	16b-
.	.	.	32a
.	.	.	32b-
4r	4r	4r	16dd
.	.	.	16dd
.	.	.	16dd
.	.	.	32cc
.	.	.	32dd
4D	4d	4b-	16ff
.	.	.	16ff
.	.	.	16ff
.	.	.	32ee
.	.	.	32ff
4r	4r	4r	16bb-
.	.	.	16bb-
.	.	.	16bb-
.	.	.	32aa
.	.	.	32bb-
=37	=37	=37	=37
8BB-	8f	8b-	16ddd
.	.	.	16ddd
8r	8r	8r	16ddd
.	.	.	32ccc
.	.	.	32ddd
8D	8B-	8b-	16fff
.	.	.	16fff
8r	8r	8r	16fff
.	.	.	32eee
.	.	.	32fff
4E-	4B-	4b-	4.bbb-
4E	4e	4e	.
.	.	.	8e
=38	=38	=38	=38
4F	8f	8f	2f
.	8d	8f	.
4r	8c	8e-	.
.	8B-	8d	.
8F	8r	8r	2cc
8r	8A	8c	.
8F	8r	8r	.
8r	8A	8e-	.
=39	=39	=39	=39
4BB-	4B-	8d	8b-
.	.	4dd	4bb-
4.r	4.r	.	.
.	.	24ee-	24gg
.	.	24dd	24ff
.	.	24cc	24ee-
.	.	8b-	8dd
4B-	4b-	4b-	4b-
24G	24g	24g	24g
24E-	24e-	24e-	24e-
24C	24c	24c	24c
=40	=40	=40	=40
4BB-	4B-	8B-	8B-
.	.	4dd	4bb-
4.r	4.r	.	.
.	.	24ee-	24gg
.	.	24dd	24ff
.	.	24cc	24ee-
.	.	8b-	8dd
4B-	4b-	4b-	4b-
24BB-	24B-	24B-	24B-
24D	24d	24d	24d
24F	24f	24f	24f
=41	=41	=41	=41
8B-	8b-	8b-	8b-
24BB-	24B-	24B-	24B-
24D	24d	24d	24d
24F	24f	24f	24f
8B-	8b-	8b-	8b-
24BB-	24B-	24B-	24B-
24D	24d	24d	24d
24F	24f	24f	24f
4A-	4a-	4a-	4a-
4r	4r	4r	8r
.	.	.	8G
=42	=42	=42	=42
8GG	1B	1d	8B
8GG	.	.	8d
8GG	.	.	8g
8GG	.	.	8b
8GG	.	.	8dd
8GG	.	.	8ff#
8GG	.	.	8gg
8GG	.	.	8G
=43	=43	=43	=43
8GG	[1c	[1e-	8c
8GG	.	.	8e-
8GG	.	.	8g
8GG	.	.	8b
8GG	.	.	8cc
8GG	.	.	8ee-
8GG	.	.	8gg
8GG	.	.	8G
=44	=44	=44	=44
8AA-	1c]	1e-]	8A-
8AA-	.	.	8c
8AA-	.	.	8e-
8AA-	.	.	8g
8AA-	.	.	8a-
8AA-	.	.	8cc
8AA-	.	.	8ee-
8AA-	.	.	8A-
=45	=45	=45	=45
8AA	1e-	1g-	8A
8AA	.	.	8c
8AA	.	.	8e-
8AA	.	.	8g-
8AA	.	.	8a
8AA	.	.	8cc
8AA	.	.	8ee-
8AA	.	.	8A
=46	=46	=46	=46
8BB-	1d	1f	8B-
8BB-	.	.	8d
8BB-	.	.	8f
8BB-	.	.	8b-
8BB-	.	.	8dd
8BB-	.	.	8ff
8BB-	.	.	8bb-
8BB-	.	.	8B-
=47	=47	=47	=47
8BB	1f	1a-	8B
8BB	.	.	8d
8BB	.	.	8f
8BB	.	.	8a-
8BB	.	.	8b
8BB	.	.	8dd
8BB	.	.	8ff
8BB	.	.	8B
=48	=48	=48	=48
8C	1e-	1g	8c
8C	.	.	8e-
8C	.	.	8g
8C	.	.	8cc
8C	.	.	8ee-
8C	.	.	8gg
8C	.	.	8ccc
8C	.	.	8G
=49	=49	=49	=49
8AA-	1c	2.f#	8A-
8AA-	.	.	8c
8AA-	.	.	8e-
8AA-	.	.	8a-
8AA-	.	.	8cc
8AA-	.	.	8ee-
8AA-	.	[4d	8aa-
8AA-	.	.	8f#
=50	=50	=50	=50
8GG	8B	8d]	8g
8GG	8G	8G	8G
8BB	8B	8B	8B
8F#	8f#	8f#	8f#
8G	8g	8g	8g
4.r	4.r	4.r	4.r
=51	=51	=51	=51
4E-	3..r	8r	4r
.	.	8e-	.
4GG	.	8b-	[6..e-
.	.	8dd-	.
4AA-	.	4cc	.
.	.	.	48e-]
.	.	.	16cc
.	24r	.	.
.	8A-	.	16ee-
.	.	.	16dd-
4r	8c	4r	16cc
.	.	.	16b-
.	8e-	.	16a-
.	.	.	16g
=52	=52	=52	=52
4F	4f	8r	4f
.	.	8f	.
4AA	4.r	8cc	[6..f
.	.	8ee-	.
4BB-	.	4dd	.
.	.	.	48f]
.	.	.	16dd
.	8B-	.	16ff
.	.	.	16ee-
4r	8d	4r	16dd
.	.	.	16cc
.	8f	.	16b-
.	.	.	16a-
=53	=53	=53	=53
4G	4g	2r	8g
.	.	.	8g
4BB	4.r	.	8dd
.	.	.	8ff
4C	.	4gg	4ee-
.	8G	.	.
4r	8d	4b	4r
.	8f	.	.
=54	=54	=54	=54
8r	4e-	4cc	4ccc
8C	.	.	.
8G	4c	8b-	4ee
8B-	.	8g	.
16A-	16f	[2a-	4ff
16B-	16g	.	.
16c	16a-	.	.
16B-	16g	.	.
16A-	16f	.	4r
16G	16e-	.	.
16F	16d	.	.
16E-	16c	.	.
=55	=55	=55	=55
8D	2B-	4.a-]	4bb-
8BB-	.	.	.
8F	.	.	4dd
8A-	.	8f	.
4G	4e-	[2e-	8ee-
.	.	.	8ee-
4r	4G	.	8bb-
.	.	.	8ddd-
=56	=56	=56	=56
4A-	4A-	16e-]	4ccc
.	.	16cc	.
.	.	16ee-	.
.	.	16dd-	.
4C	4r	16cc	4.r
.	.	16b-	.
.	.	16a-	.
.	.	16g	.
4D-	4d-	4f	.
.	.	.	8dd-
4r	4F	[4d-	8aa-
.	.	.	8ccc
=57	=57	=57	=57
4G	4G	16d-]	4bb-
.	.	16b-	.
.	.	16dd-	.
.	.	16cc	.
4BB-	4r	16b-	4.r
.	.	16a-	.
.	.	16g	.
.	.	16f	.
4C	4c	4e	.
.	.	.	8cc
4r	4E	[4c	8gg
.	.	.	8bb-
=58	=58	=58	=58
4F	4F	16c]	4aa-
.	.	16a-	.
.	.	16cc	.
.	.	16b-	.
4AA-	4r	16a-	4.r
.	.	16g	.
.	.	16f	.
.	.	16e-	.
4BB-	4B-	4d	.
.	.	.	8b-
4r	4D	[4B-	8ff
.	.	.	8aa-
=59	=59	=59	=59
4E-	4E-	4B-]	16gg
.	.	.	16aa-
.	.	.	16bb-
.	.	.	16aa-
4GG	[6..E-	4r	16gg
.	.	.	16ff
.	.	.	16ee-
.	.	.	16dd
4AA-	.	4cc	4cc
.	48E-]	.	.
.	16c	.	.
.	16e-	.	.
.	16d-	.	.
4r	16c	4e-	[4cc
.	16B-	.	.
.	16A-	.	.
.	16G	.	.
=60	=60	=60	=60
4F	4A-	4f	16cc]
.	.	.	16aa-
.	.	.	16ccc
.	.	.	16bb-
4AA-	[6..F	4r	16aa-
.	.	.	16gg
.	.	.	16ff
.	.	.	16ee-
4BB-	.	4dd	4dd
.	48F]	.	.
.	16d	.	.
.	16f	.	.
.	16e-	.	.
4r	16d	4f	[4dd
.	16c	.	.
.	16B-	.	.
.	16A	.	.
=61	=61	=61	=61
4G	4B-	4g	16dd]
.	.	.	16bb-
.	.	.	16ddd
.	.	.	16ccc
4BB-	[6..G	4r	16bb-
.	.	.	16aa-
.	.	.	16gg
.	.	.	16ff
4C	.	4ee-	4ee-
.	48G]	.	.
.	16e-	.	.
.	16g	.	.
.	16f	.	.
4r	16e-	4g	4ee-
.	16d	.	.
.	16c	.	.
.	16B-	.	.
=62	=62	=62	=62
8C	8A-	8a-	2aa-
8C	8e-	8e-	.
8C	8e-	8e-	.
8C	8e-	8e-	.
8C	8e-	8e-	2gg
8C	8e-	8e-	.
8C	8e-	8e-	.
8C	8e-	8e-	.
=63	=63	=63	=63
[1C	[1e-	[1f# [1a	16ff#
.	.	.	16ccc
.	.	.	16aa
.	.	.	16ff#
.	.	.	16ee-
.	.	.	16cc
.	.	.	16a
.	.	.	16f#
.	.	.	16e-
.	.	.	16ccc
.	.	.	16aa
.	.	.	16ff#
.	.	.	16ee-
.	.	.	16cc
.	.	.	16a
.	.	.	16f#
=64	=64	=64	=64
2C_	2e-_	2f#_ 2a_	16e-
.	.	.	16ccc
.	.	.	16aa
.	.	.	16ff#
.	.	.	16ee-
.	.	.	16cc
.	.	.	16a
.	.	.	16f#
4C]	4e-]	4f#] 4a]	4e-
4r	4r	4r	4r
=65	=65	=65	=65
4BB-	4d	4g	8r
.	.	.	16.d
.	.	.	32e-
4.r	4.r	4.r	16.d
.	.	.	32e-
.	.	.	16.d
.	.	.	32e-
.	.	.	8d
8G	4d	8b-	8dd
8A	.	8a	8cc
8B-	8d	8g	8b-
=66	=66	=66	=66
4c	4d	4f#	8a
.	.	.	16.d
.	.	.	32e-
4.r	4.r	4.r	16.d
.	.	.	32e-
.	.	.	16.d
.	.	.	32e-
.	.	.	8d
8F#	4d	8a	8cc
8G	.	8g	8b-
8A	8d	8f#	8a
=67	=67	=67	=67
4B-	4d	4g	8g
.	.	.	16.e-
.	.	.	32f
4.r	4.r	4.r	16.e-
.	.	.	32f
.	.	.	16.e-
.	.	.	32f
.	.	.	8e-
8B-	8G	4e-	8dd-
8A-	8A-	.	8cc
8G	8B-	8e	8b-
=68	=68	=68	=68
4F	4c	4f	8a
.	.	.	16.f
.	.	.	32g
4.r	4.r	4.r	16.f
.	.	.	32g
.	.	.	16.f
.	.	.	32g
.	.	.	8f
8c	8A	4f	8ee-
8B-	8B-	.	8dd
8A	8c	8f#	8cc
=69	=69	=69	=69
4G	4d	4g	8b
.	.	.	16.g
.	.	.	32a-
4.r	3..r	4.r	16.g
.	.	.	32a-
.	.	.	16.g
.	.	.	32a-
.	.	.	8g
8d	.	4g	8ff
8c	.	.	8ee-
.	24r	.	.
8B-	[8e-	8g	8dd-
=70	=70	=70	=70
2A-	8e-]	16.g	[3cc
.	.	32a-	.
.	8e	16.g	.
.	.	32a-	.
.	4.f	[3f	.
.	.	.	96cc]
.	.	.	32dd-
.	.	.	16.cc
.	.	.	32dd-
2G	.	.	[3b-
.	.	96f]	.
.	.	32g	.
.	8d	16.f	.
.	.	32g	.
.	8e-	[4e-	.
.	.	.	96b-]
.	.	.	32cc
.	8B-	.	16.b-
.	.	.	32cc
=71	=71	=71	=71
4F	8c	8e-]	8.a-
.	8d	4d	.
.	.	.	16b-
4E-	8e-	.	16.g
.	.	.	32a-
.	8E-	4c	16.g
.	.	.	32a-
4D	8D	.	8.f
.	8F	4B-	.
.	.	.	16g
4C	8G	.	16.e-
.	.	.	32f
.	8F	8A	16.e-
.	.	.	32f
=72	=72	=72	=72
8BB-	8F	8B-	8d
8BB-	8B-	4d	4b-
8BB-	8B-	.	.
8BB-	8B-	24e-	24g
.	.	24d	24f
.	.	24c	24e-
8BB-	8B-	8B-	8d
8BB-	8B-	4d	4b-
8BB-	8B-	.	.
8BB-	8B-	24e-	24g
.	.	24d	24f
.	.	24c	24e-
=73	=73	=73	=73
8BB-	8B-	8B-	8d
24BB-	24B-	24B-	24B-
24D	24d	24d	24d
24F	24f	24f	24f
8B-	8b-	8b-	8b-
24BB-	24B-	24B-	24B-
24D	24d	24d	24d
24F	24f	24f	24f
4A-	4a-	4a-	4a-
4r	4r	4r	8r
.	.	.	8e-
=74	=74	=74	=74
4E-	4B-	4e- 4G	8g
.	.	.	8b-
4r	4r	4r	8ee-
.	.	.	8gg
4E-	4B-	4G 4e-	8bb-
.	.	.	8gg
4r	4r	4r	8ee-
.	.	.	8b-
=75	=75	=75	=75
4D	4B-	4B- 4f	8a-
.	.	.	8f
4r	4r	4r	8d
.	.	.	8A-
4E-	4B-	4G 4e-	8G
.	.	.	8B-
4r	4r	4r	8e-
.	.	.	8g
=76	=76	=76	=76
1r	8A-	4.r	8c
.	8r	.	8a-
.	8B-	.	8d
.	8r	8d	8b-
.	4.E-	4f	4a-
.	.	8e-	8g
.	8r	8r	8e-
=77	=77	=77	=77
4E-	4B-	4e- 4G	8g
.	.	.	8b-
4r	4r	4r	8ee-
.	.	.	8gg
4E-	4B-	4G 4e-	8bb-
.	.	.	8gg
4r	4r	4r	8ee-
.	.	.	8b-
=78	=78	=78	=78
8AA-	8F	8c	8cc
8r	8r	8r	8f
8BB-	8F	8d	8a-
8r	8r	8r	8d
4E-	8G	8e-	8e-
.	4r	4r	4.r
4r	.	.	.
.	8G	8B-	.
=79	=79	=79	=79
8EE-	2G	2B-	1r
8E-	.	.	.
8E-	.	.	.
8E-	.	.	.
8EE-	2B-	2d-	.
8E-	.	.	.
8E-	.	.	.
8E-	.	.	.
=80	=80	=80	=80
8EE-	2A-	2c	1r
8E-	.	.	.
8E-	.	.	.
8E-	.	.	.
8EE-	2F	2d 2A-	.
8E-	.	.	.
8E-	.	.	.
8E-	.	.	.
=81	=81	=81	=81
[1E-	2G	2e- 2G	8r
.	.	.	8ee-
.	.	.	8ee-
.	.	.	16dd
.	.	.	16cc
.	2B-	2d-	8b-
.	.	.	8g
.	.	.	8f
.	.	.	8e-
=82	=82	=82	=82
1E-]	2A-	2c	8e-
.	.	.	8ee-
.	.	.	8ee-
.	.	.	16dd
.	.	.	16cc
.	2F	2d 2A-	4b-
.	.	.	8a-
.	.	.	16g
.	.	.	16f
=83	=83	=83	=83
4E-	4G	4G 4e-	8e-
.	.	.	16.b-
.	.	.	32cc
4.r	4.r	4.r	16.b-
.	.	.	32cc
.	.	.	16.b-
.	.	.	32cc
.	.	.	8b-
8E-	4B-	8b-	8gg
8F	.	8a-	8ff
8G	8B-	8g	8ee-
=84	=84	=84	=84
4A-	4B-	4f	8dd
.	.	.	16.b-
.	.	.	32cc
4.r	4.r	4.r	16.b-
.	.	.	32cc
.	.	.	16.b-
.	.	.	32cc
.	.	.	8b-
8D	4B-	8ff	8aa-
8E-	.	8ee-	8gg
8F	8B-	8dd	8ff
=85	=85	=85	=85
4G	4B-	4ee-	8ee-
.	.	.	16.b-
.	.	.	32cc
4.r	4.r	4.r	16.b-
.	.	.	32cc
.	.	.	16.b-
.	.	.	32cc
.	.	.	8b-
8E-	4B-	8gg	8bb-
8F	.	8ff	8aa-
8G	8B-	8ee-	8gg
=86	=86	=86	=86
4A-	4c	2cc	16.ff
.	.	.	32gg
.	.	.	16.aa-
.	.	.	32gg
8AA-	8A-	.	16.ff
.	.	.	32gg
8AA	8A	.	16.ee-
.	.	.	32ff
2BB-	8B-	8b-	16.dd
.	.	.	32ee-
.	8c	8a-	16.cc
.	.	.	32dd
.	4d	8g	16.b-
.	.	.	32cc
.	.	8f	16.a-
.	.	.	32b-
=87	=87	=87	=87
4E-	8e-	4e-	8g
.	8E-	.	16ee-
.	.	.	32dd
.	.	.	32ee-
8r	8r	4.ee-	8gg
8E-	8B-	.	8g
8F	4.A-	.	8a-
8FF	.	8dd	16ff
.	.	.	32ee
.	.	.	32ff
8r	.	[4ff	8aa-
8F	8c	.	8a-
=88	=88	=88	=88
8G	4.B-	8ff]	8b-
8GG	.	8ee-	16gg
.	.	.	32ff
.	.	.	32gg
8r	.	4.gg	8bb-
8G	8d-	.	8b-
8A-	4.c	.	8cc
8AA-	.	8ff	16aa-
.	.	.	32gg
.	.	.	32aa-
8r	.	8aa-	8ccc
8A	8f	8cc	8ee-
=89	=89	=89	=89
4B-	4f	8b-	8dd
.	.	8ff	16dd
.	.	.	32cc
.	.	.	32dd
8r	8r	8aa-	8ff
8BB-	8f	8dd	8a-
8E-	4e-	4ee-	8g
8EE-	.	.	8b-
[4E-	4r	8r	8ee-
.	.	16ee-	16g
.	.	32dd	32f
.	.	32ee-	32g
=90	=90	=90	=90
8E-]	8r	8ff	8a-
8D	16f	8f	8aa-
.	16e-	.	.
4.F	4d	8a-	8r
.	.	16ff	16a-
.	.	32ee-	32g
.	.	32ff	32a-
.	8r	8gg	8b-
8E-	16g	8g	8bb-
.	16f	.	.
[4G	4e-	8b-	8r
.	.	16gg	16b-
.	.	32ff	32a-
.	.	32gg	32b-
=91	=91	=91	=91
8G]	8r	8aa-	8cc
8F	16a-	8a-	8ccc
.	16g	.	.
4.A-	8f	4cc	8r
.	8e-	.	8ccc
.	8f	4b-	8dd
4G	8e-	.	8ee-
.	4c	4cc	[4aa-
8F	.	.	.
=92	=92	=92	=92
8D	8f	4b-	16.aa-]
.	.	.	32bb-
8E-	4e-	.	8..gg
8C	.	4a-	.
.	.	.	32aa-
8D	4d	.	8..ff
8BB-	.	4g	.
.	.	.	32gg
8C	4c	.	8..ee-
8AA-	.	[4f	.
.	.	.	32ff
8AA	8c	.	16.ee-
.	.	.	32ff
=93	=93	=93	=93
8BB-	2d	2f]	16dd
.	.	.	16aa-
8BB-	.	.	16ff
.	.	.	16dd
8BB-	.	.	16b-
.	.	.	16a-
8BB-	.	.	16ff
.	.	.	16a-
8BB-	[2e-	2g	16g
.	.	.	16eee-
8BB-	.	.	16bb-
.	.	.	16gg
8BB-	.	.	16ee-
.	.	.	16b-
8BB-	.	.	16g
.	.	.	16e-
=94	=94	=94	=94
8BB-	2e-]	2a	16c
.	.	.	16eee-
8BB-	.	.	16ccc
.	.	.	16aa
8BB-	.	.	16ff
.	.	.	16ee-
8BB-	.	.	16ccc
.	.	.	16ee-
8BB-	2f	2a-	16dd
.	.	.	16aa-
8BB-	.	.	16ff
.	.	.	16dd
8BB-	.	.	16b-
.	.	.	16a-
8BB-	.	.	16ff
.	.	.	16a-
=95	=95	=95	=95
4E-	4e-	4g	16g
.	.	.	16e-
.	.	.	16e-
.	.	.	32d
.	.	.	32e-
4r	4r	4r	16g
.	.	.	16g
.	.	.	16g
.	.	.	32f
.	.	.	32g
4E-	4B-	4g	16b-
.	.	.	16b-
.	.	.	16b-
.	.	.	32a
.	.	.	32b-
4r	4r	4r	16ee-
.	.	.	16ee-
.	.	.	16ee-
.	.	.	32dd
.	.	.	32ee-
=96	=96	=96	=96
4E-	4B-	4g	16gg
.	.	.	16gg
.	.	.	16gg
.	.	.	32ff
.	.	.	32gg
4.r	4.r	4.r	16bb-
.	.	.	16bb-
.	.	.	16bb-
.	.	.	32aa
.	.	.	32bb-
.	.	.	2ddd-
8G	8B-	8e-	.
8G	8B-	8e-	.
8G	8B-	8e-	.
=97	=97	=97	=97
4A-	4c	4e-	16ccc
.	.	.	16ccc
.	.	.	16ccc
.	.	.	32bb-
.	.	.	32ccc
4.r	4.r	4.r	16eee-
.	.	.	16eee-
.	.	.	16eee-
.	.	.	32ddd
.	.	.	32eee-
.	.	.	4.ggg
8A	8c	8e-	.
8A	8c	8e-	.
8A	8A	8A	8A
=98	=98	=98	=98
8B-	8B-	8B-	4b-
8BB-	8G	8e-	.
8BB-	8G	8e-	16a-
.	.	.	16g
8BB-	8G	8e-	16f
.	.	.	16e-
8BB-	8G	8e-	2e-
8BB-	8G	8e-	.
8BB-	8G	8e-	.
8BB-	8G	8e-	.
=99	=99	=99	=99
8BB-	8G-	8e-	4b-
8BB-	8G-	8e-	.
8BB-	8G-	8e-	16a-
.	.	.	16g-
8BB-	8G-	8e-	16f
.	.	.	16e-
8BB-	8G-	8e-	2e-
8BB-	8G-	8e-	.
8BB-	8G-	8e-	.
8BB-	8G-	8e-	.
=100	=100	=100	=100
8BB-	8G-	8d-	[3..f-
8BB-	8G-	8d-	.
8BB-	8G-	8d-	.
8BB-	8G-	8d-	.
8BB-	8G-	8d-	.
.	.	.	24f-]
8BB-	8G-	8d-	8a-
8BB-	8G-	8d-	8g-
8BB-	8G-	8d-	8f-
=101	=101	=101	=101
2.C-	4G-	4c-	8e-
.	.	.	4e-
.	4G	4G	.
.	.	.	4e-
.	4A-	4A-	.
.	.	.	4e-
4C	4F	4A	.
.	.	.	8e-
=102	=102	=102	=102
8BB-	8F	8B-	24d
.	.	.	24f
.	.	.	24a-
8BB-	8F	8d	24f
.	.	.	24d
.	.	.	24B-
8BB-	8F	8d	24A-
.	.	.	24B-
.	.	.	24d
8BB-	8F	8d	24f
.	.	.	24d
.	.	.	24B-
8BB-	8F	8d	24d
.	.	.	24f
.	.	.	24a-
8BB-	8F	8d	24f
.	.	.	24d
.	.	.	24B-
8BB-	8F	8d	24A-
.	.	.	24B-
.	.	.	24d
8BB-	8F	8d	24f
.	.	.	24d
.	.	.	24B-
=103	=103	=103	=103
8AA-	8F	8d	24d
.	.	.	24f
.	.	.	24a-
8AA-	8F	8d	24f
.	.	.	24d
.	.	.	24B-
8AA-	8F	8d	24A-
.	.	.	24B-
.	.	.	24d
8AA-	8F	8d	24f
.	.	.	24d
.	.	.	24B-
8AA-	8F	8d	24d
.	.	.	24f
.	.	.	24a-
8AA-	8F	8d	24f
.	.	.	24d
.	.	.	24B-
8AA-	8F	8d	24A-
.	.	.	24B-
.	.	.	24d
8AA-	8F	8d	24f
.	.	.	24d
.	.	.	24B-
=104	=104	=104	=104
4GG	4E-	4e-	16G
.	.	.	16e-
.	.	.	16e-
.	.	.	32d
.	.	.	32e-
4r	4r	4r	16g
.	.	.	16g
.	.	.	16g
.	.	.	32f
.	.	.	32g
4GG	4B-	4e-	16b-
.	.	.	16b-
.	.	.	16b-
.	.	.	32a
.	.	.	32b-
4r	4r	4r	16ee-
.	.	.	16ee-
.	.	.	16ee-
.	.	.	32dd
.	.	.	32ee-
=105	=105	=105	=105
4GG	4B-	4e-	16gg
.	.	.	16gg
.	.	.	16gg
.	.	.	32ff
.	.	.	32gg
4r	4r	4r	16bb-
.	.	.	16bb-
.	.	.	16bb-
.	.	.	32aa
.	.	.	32bb-
4GG	4B-	4e-	16eee-
.	.	.	16eee-
.	.	.	16eee-
.	.	.	32ddd
.	.	.	32eee-
8r	8r	8r	8ggg
8AA	8A	8A	8A
=106	=106	=106	=106
4BB-	8B-	8B-	2B-
.	8g	8b-	.
4r	8f	8a-	.
.	8e-	8g	.
8BB-	8r	8r	2f
8r	8d	8f	.
8BB-	8r	8r	.
8r	8d	8a-	.
=107	=107	=107	=107
4E-	4e-	8g	8e-
.	.	4g	4ee-
4.r	4.r	.	.
.	.	24a-	24cc
.	.	24g	24b-
.	.	24f	24a-
.	.	8e-	8g
4B-	4b-	4b-	4b-
24A-	24a-	24a-	24a-
24F	24f	24f	24f
24D	24d	24d	24d
=108	=108	=108	=108
4E-	4e-	8e-	8e-
.	.	4g	4ee-
4.r	4.r	.	.
.	.	24a-	24cc
.	.	24g	24b-
.	.	24f	24a-
.	.	8e-	8g
4A-	4a-	4a-	4a-
24F	24f	24f	24f
24D	24d	24d	24d
24BB-	24B-	24B-	24B-
=109	=109	=109	=109
8E-	8e-	8e-	8e-
8BB-	8A-	8f	24a-
.	.	.	24f
.	.	.	24d
8E-	8G	8e-	8e-
8BB-	8F	8f	24a-
.	.	.	24f
.	.	.	24d
4E-	4G	4e-	4e-
4r	4r	4r	4r
==	==	==	==
*-	*-	*-	*-
!!!RWG1: This file contains only pitch and duration data.
!!!RWG2: Transposing instruments are not transposed.
!!!RWG3: Spines may have incompatible meters.
!!!RWG4: Durations of rests and tied notes may be interpreted.
!!!RWG: Key is interpreted using the Humdrum key tool.
!!!AFT: stage1
!!!END: 1997/04/15
!!!KEY: 2409001381
!!!EMD: Converted from MuseData to Humdrum Dec 16, 2000, by Andreas Kornstaedt using muse2kern.
!!!EMD: Manual editing by Craig Sapp, Nov 2001
